X:481
T:Cottey House. (p)1702.PLFD.481
M:6/4
L:1/4
Q:3/4=100
S:Playford, Dancing Master,Supp.to 11th Ed.,1702.
O:England
Z:Chris Partington.
K:D
A|d3f2g|afbgea|fdgecf|dBec2A|
d3f2g|afbgeg|aBcdB2|A3-A2:|
|:A|d2dB2B|edec2c|fef^ABc|c2BB2f|
babg2e|agaf2f|gfgcBc|agadcd|
bedcAG|(FA2)(GB2)|(Ad2)(Ae2)|Adcd2:|
